icons/arrow-box-out-down.svg

<svg xmlns="http://www.w3.org/2000/svg" width="24" height="24" viewBox="0 0 24 24">
  <path d="M12,9 C12.5522847,9 13,9.44771525 13,10 L13,10 L12.999,19.586 L15.5355339,17.0502525 L15.6297412,16.9670639 C16.0220325,16.662039 16.5892635,16.6897686 16.9497475,17.0502525 C17.3402718,17.4407768 17.3402718,18.0739418 16.9497475,18.4644661 L16.9497475,18.4644661 L12.7071068,22.7071068 C12.6786405,22.7355731 12.6484659,22.7623312 12.6167501,22.787214 C12.6098424,22.7927155 12.602603,22.7982466 12.5953066,22.8036654 C12.5711307,22.8215099 12.546275,22.8382813 12.5206602,22.8539326 C12.5086131,22.8613931 12.4963944,22.8685012 12.4840621,22.8753288 C12.4642939,22.8862061 12.4438914,22.8966234 12.4230991,22.9063462 C12.4060985,22.914321 12.3887956,22.9218036 12.371336,22.9287745 C12.3515792,22.9366843 12.3317977,22.9438775 12.3117364,22.9504533 C12.2968513,22.9552713 12.2814633,22.9599023 12.265993,22.9641549 C12.2444365,22.9701664 12.2227461,22.9753602 12.2007941,22.9798348 C12.1926434,22.981408 12.1845447,22.9829554 12.1764315,22.9844021 L12.1489612,22.9889807 C12.1003621,22.9962388 12.0506203,23 12,23 L12.086,22.995 L12.0590314,22.9982669 L12.0590314,22.9982669 L12.032,22.998 L12,23 C11.9887775,23 11.9775981,22.9998151 11.9664648,22.9994483 L11.9409686,22.9982669 C11.9322314,22.9977534 11.9234996,22.9971258 11.9147758,22.996384 C11.8929426,22.994564 11.8718856,22.9920941 11.8510388,22.9889807 C11.834051,22.9863719 11.8166247,22.9832978 11.7992742,22.9797599 C11.7772539,22.9753602 11.7555635,22.9701664 11.7341604,22.964279 C11.7185367,22.9599023 11.7031487,22.9552713 11.6878575,22.9502619 C11.6682023,22.9438775 11.6484208,22.9366843 11.6289415,22.928896 C11.6112044,22.9218036 11.5939015,22.914321 11.5767785,22.9063266 C11.5561086,22.8966234 11.5357061,22.8862061 11.515723,22.8751242 C11.5036056,22.8685012 11.4913869,22.8613931 11.4792912,22.8540045 C11.453725,22.8382813 11.4288693,22.8215099 11.4048407,22.8036865 C11.3656744,22.774687 11.3282873,22.7425008 11.2928932,22.7071068 L11.3832499,22.787214 C11.3515341,22.7623312 11.3213595,22.7355731 11.2928932,22.7071068 L7.05025253,18.4644661 L6.96706393,18.3702588 C6.66203903,17.9779675 6.68976857,17.4107365 7.05025253,17.0502525 C7.44077682,16.6597282 8.0739418,16.6597282 8.46446609,17.0502525 L8.46446609,17.0502525 L10.999,19.584 L11,10 L11.0067277,9.88337887 C11.0644928,9.38604019 11.4871642,9 12,9 Z M17,1 L17.1762728,1.00509269 C18.75108,1.09633912 20,2.40231912 20,4 L20,4 L20,12 L19.9949073,12.1762728 C19.9036609,13.75108 18.5976809,15 17,15 L17,15 L16,15 L15.8833789,14.9932723 C15.3860402,14.9355072 15,14.5128358 15,14 C15,13.4477153 15.4477153,13 16,13 L16,13 L17,13 L17.1166211,12.9932723 C17.6139598,12.9355072 18,12.5128358 18,12 L18,12 L18,4 L17.9932723,3.88337887 C17.9355072,3.38604019 17.5128358,3 17,3 L17,3 L7,3 L6.88337887,3.00672773 C6.38604019,3.06449284 6,3.48716416 6,4 L6,4 L6,12 L6.00672773,12.1166211 C6.06449284,12.6139598 6.48716416,13 7,13 L7,13 L8,13 L8.11662113,13.0067277 C8.61395981,13.0644928 9,13.4871642 9,14 C9,14.5522847 8.55228475,15 8,15 L8,15 L7,15 L6.82372721,14.9949073 C5.24891996,14.9036609 4,13.5976809 4,12 L4,12 L4,4 L4.00509269,3.82372721 C4.09633912,2.24891996 5.40231912,1 7,1 L7,1 L17,1 Z"/>
</svg>

<svg xmlns="http://www.w3.org/2000/svg" viewBox="0 0 24 24">
  <path d="M12 9a1 1 0 0 1 1 1v9.59l2.54-2.54.09-.08a1 1 0 0 1 1.32 1.5l-4.24 4.24a1 1 0 0 1-.53.27h-.03A1 1 0 0 1 12 23h.09-.15a1 1 0 0 1-.65-.3l.1.09a1 1 0 0 1-.1-.08l-4.24-4.25-.08-.09a1 1 0 0 1 1.5-1.32L11 19.58v-9.7A1 1 0 0 1 12 9zm5-8h.18A3 3 0 0 1 20 4v8.18A3 3 0 0 1 17 15h-1.12a1 1 0 0 1 .12-2h1.12a1 1 0 0 0 .88-1V3.88A1 1 0 0 0 17 3H6.88A1 1 0 0 0 6 4v8.12A1 1 0 0 0 7 13h1.12A1 1 0 0 1 8 15H6.82A3 3 0 0 1 4 12V3.82A3 3 0 0 1 7 1h10z"/>
</svg>
